X:1
T:II. Là-bas, vers l'église
T:V. Tout gai!
T:Traduction française par M.D Calvocoressi
T:acct de piano par
T: Maurice Ravel 
T:Cinq mélodies populaires grecques
%%score 1 { 2 | ( 3 4 ) }
L:1/8
Q:1/4=110
M:2/4
K:Ab
V:1 treble nm="Chant"
V:2 treble nm="Piano"
V:3 bass 
V:4 bass 
V:1
"^Allegro" z4 | z4 | z4 | z2!mf! (cd) | e4 | e4 | f2 (dc) | B3 c | d4 |[M:3/4] d4 c2 | %10
w: |||Tout *|gai!|gai,|Ha, tout *|gai, tout|gai,|Ha, tout|
[M:2/4] A2 z2 | z2 G A | B2 B2 | B c B A | G2 E2 | z2 G A | B2 B2 | B c B A | d2 d2- | %19
w: gai!|Bel- le|jam- be,|ti- re- li, qui-|dan- se;|Bel- le|jam- be,|la vais- sel- le|dan- se,|
[M:3/4] d2 c3 B |[M:2/4] (BA) c2 | A2 z2 | z2 c d | e3 e | e4 | e e d c | B2 (B c) | d3 d | %28
w: _ Tra la|la * la|la!|la- ra-|la, la|la,|la la la la|la, la- ï|la, la|
[M:3/4] d3 d c3/2 B/ |[M:2/4] A4 | z2 G A | B2 B2 | B c B A | G A E2 | z2 G A | B2 B2 | B c B A || %37
w: la la la la|la,|la la|la la|la la la la|la la la|la la|la la|la la la la|
[M:3/4] d2 d2 !fermata!z2 |[Q:1/4=90]"^suivez"[Q:1/4=90]"^Rall." c3 B (BA) || %39
w: la la,|tra la la *|
[M:2/4][Q:1/4=110]"^a tempo"[Q:1/4=110]"^a tempo" c2 A2 | z4 | z4 | z4 | z4 |] %44
w: la la.|||||
V:2
 z4 | z4 | ([CE]2 [B,Fc]2) | ([CE]2 [B,Fc]2) | ([CE]2 [B,Fc]2) | ([CE]2 [B,Fc]2) | %6
 ([DF]2 [B,Ad]2) | ([DF]2 [B,Ad]2) | (([DF]2 [B,Ad]2)) |[M:3/4] [DF]2 [B,Ad]2 [DFc]2 | %10
[M:2/4] [CE]2- z2 | x4 | x4 | x4 | x4 | x4 | x4 | x4 | x4 |[M:3/4] x6 |[M:2/4] [B,F]2 [cfc']2 | %21
 ([CE]2 [B,Fc]2) | z ([ea][fe'][ea]) | ([CE]2 [B,Fc]2) | z ([ea][fe'][ea]) | ([DF]2 [B,Ad]2) | %26
 z ([ea][fe'][ea]) | ([DF]2 [B,Ad]2) |[M:3/4] z ([ea][fe'][ea]) eE |[M:2/4] ([CE]2 [B,Fc]2) | %30
 z2{f'e'd'} [be'] z | z2{f'e'd'} [be'] z | z2{f'e'd'} [be'] z | z2{f'e'd'} [be'] z | %34
 z2{f'e'd'} [be'] z | z2{f'e'd'} [be'] z | z2{f'e'd'} [be'] z ||[M:3/4] x4 x x/ !fermata!z/ | %38
 [Fc]2{/f'} [ebe']2 z2 ||[M:2/4] ([CE]2 [B,Fc]2) | ([CE]2 [B,Fc]2) | ([CE]2 [B,Fc]2) | %42
 z2 [B-fc'-][ce]- | xx x2 |] %44
V:3
!p! (A,,E,/A,,/ E,E) | (A,,E,/A,,/ E,/E/E,) |!p! (A,,E,/A,,/ E,E) |!p! (A,,E,/A,,/ E,/E/E,) | %4
 (A,,E,/A,,/ E,E) | (A,,E,/A,,/ E,/E/E,) | (A,,E,/A,,/ E,E) | (A,,E,/A,,/ E,/E/E,) | %8
 (A,,E,/A,,/ E,E) |[M:3/4] (A,,E,/A,,/ E,/E/E,) (EE,) |[M:2/4] A,,/E,/A,, (E,E) | %11
 [E,B,][I:staff -1](B/E/)[I:staff +1][K:treble] [EB][I:staff -1][eb] | %12
[I:staff +1][K:bass] [E,B,][I:staff -1]([FB]/E/)[I:staff +1][K:treble] (A/D/)[I:staff -1][efb] | %13
[I:staff +1][K:bass] [D,A,][I:staff -1]([FB]/E/)[I:staff +1][K:treble] (A/D/)[I:staff -1][efb] | %14
[I:staff +1][K:bass] [E,B,][I:staff -1](B/E/)[I:staff +1][K:treble] [EB][I:staff -1][eb] | %15
[I:staff +1][K:bass] [E,B,][I:staff -1](B/E/)[I:staff +1][K:treble] [EB][I:staff -1][eb] | %16
[I:staff +1][K:bass] [D,A,][I:staff -1]([FB]/E/)[I:staff +1][K:treble] (A/D/)[I:staff -1][efb] | %17
[I:staff +1][K:bass] [D,A,][I:staff -1]([FB]/E/)[I:staff +1][K:treble] (A/D/)[I:staff -1][efb] | %18
[I:staff +1][K:bass] [B,,F,][I:staff -1](F/B,/)[I:staff +1][K:treble] F[I:staff -1](A/E/) | %19
[M:3/4][I:staff +1] [B,F][I:staff -1](A/D/)[I:staff +1] (A/D/)[I:staff -1](d/A/)[I:staff +1] [Bf]2 | %20
[M:2/4][K:bass] [E,F,D]2[K:treble] [EGd]2 |[K:bass] (A,,E,/A,,/ E,E) | %22
 E,[I:staff -1]([Fc]/E/[Fc]/E/[Fc]) |[I:staff +1] (A,,E,/A,,/ E,E) | %24
 E,[I:staff -1]([Fc]/E/[Fc]/E/[Fc]) |[I:staff +1] (A,,E,/A,,/ E,.E) | %26
 E,[I:staff -1]([Fd]/E/[Fd]/E/[Fd]) |[I:staff +1] (A,,E,/A,,/ E,E) | %28
[M:3/4] E,[I:staff -1]([Fd]/E/[Fd]/E/[Fd])[I:staff +1] x2 |[M:2/4] (A,,E,/A,,/ E,E) | %30
 [E,B,]2[K:treble] [Be]E |[K:bass] [D,A,]2[K:treble] [Be]/E/[I:staff -1][Ae]/[DE]/ | %32
[I:staff +1][K:bass] [D,A,]2[K:treble] ([Be]/E/)[I:staff -1]([Ae]/[DE]/) | %33
[I:staff +1][K:bass] [E,B,]2[K:treble] [Be]E |[K:bass] [E,B,]2[K:treble] [Be]E | %35
[K:bass] [D,A,]2[K:treble] ([Be]/E/)[I:staff -1]([Ae]/[DE]/) | %36
[I:staff +1][K:bass] [D,A,]2[K:treble] ([Be]/E/)[I:staff -1]([Ae]/[DE]/) || %37
[M:3/4][I:staff +1][K:bass] [B,,F,][I:staff -1]E/A,/[I:staff +1][K:treble] (F/B,/)[I:staff -1](A/D/)[I:staff +1] [FB][I:staff -1][cdfa]/[I:staff +1] x/ | %38
[K:bass] [E,F,D]2[K:treble] [EGd]2 z2 ||[M:2/4][K:bass] (A,,E,/A,,/ E,E) | (A,,E,/A,,/ E,E/E,/) | %41
 (A,,E,/A,,/ E,E/E,/) | z4 | E,4 |] %44
V:4
 x4 | x4 | x4 | x4 | x4 | x4 | x4 | x4 | x4 |[M:3/4] x6 |[M:2/4] x4 | x2[K:treble] x2 | %12
[K:bass] x2[K:treble] x2 |[K:bass] x2[K:treble] x2 |[K:bass] x2[K:treble] x2 | %15
[K:bass] x2[K:treble] x2 |[K:bass] x2[K:treble] x2 |[K:bass] x2[K:treble] x2 | %18
[K:bass] x2[K:treble] x2 |[M:3/4] x6 |[M:2/4][K:bass] x2[K:treble] x2 |[K:bass] x4 | x4 | x4 | x4 | %25
 x4 | x4 | x4 |[M:3/4] x6 |[M:2/4] x4 | x2[K:treble] x2 |[K:bass] x2[K:treble] x2 | %32
[K:bass] x2[K:treble] x2 |[K:bass] x2[K:treble] x2 |[K:bass] x2[K:treble] x2 | %35
[K:bass] x2[K:treble] x2 |[K:bass] x2[K:treble] x2 ||[M:3/4][K:bass] x2[K:treble] x4 | %38
[K:bass] x2[K:treble] x4 ||[M:2/4][K:bass] x4 | x4 | x4 | A,,4- | A,,4 |] %44

